week1assignment/img/SVG/logo_mls.svg

<svg fill="none" height="161" viewBox="0 0 151 161" width="151" xmlns="http://www.w3.org/2000/svg" xmlns:xlink="http://www.w3.org/1999/xlink"><clipPath id="a"><path d="m.799805.88501h150v160h-150z"/></clipPath><g clip-path="url(#a)" fill="#f8f8ff"><path d="m31.344 107.855-1.2853-2.855.8071-.807 2.9032 2.902-.5223.522-2.235-2.282 1.3803 3.14-.3798.38-3.1406-1.38 2.2825 2.282-.5223.522-2.9031-2.903.8072-.806zm-3.8052.569-.9056.906 2.425 2.424-.5698.57-2.4249-2.425-.9056.905-.4748-.474 2.33-2.33.5223.428z"/><path d="m58.3638 61.1478 1.8077 5.6116-4.7583-3.4721-4.8024 3.4721 1.8551-5.6116-4.8057-3.4721h5.8978l1.8552-5.615 1.8076 5.615h5.9488z"/><path d="m30.8179 61.1478 4.8058-3.4721h-5.9454l-1.8076-5.615-1.8077 5.615h-5.9487l4.8057 3.4721-1.8551 5.6116 4.8058-3.4721 4.8023 3.4721z"/><path d="m43.4752 75.9854-1.8551-5.6116-1.8111 5.6116h-5.8979l4.7583 3.4721-1.8076 5.6625 4.7583-3.4721 4.8023 3.4721-1.8076-5.6625 4.7583-3.4721z"/><path d="m25.585 39.1252-5.423-12.3658h-.1899v16.5059c0 .2373-.1899.4272-.4273.4272h-4.8533c-.2374 0-.4273-.1899-.4273-.4272v-28.3971c0-.2373.1899-.4272.4273-.4272h5.1381c.3324 0 .5698.1424.6648.4272l7.4206 16.6958h.1899l7.2782-16.6958c.1425-.2848.3324-.4272.7123-.4272h5.0431c.2374 0 .4274.1899.4274.4272v28.3937c0 .2373-.19.4272-.4274.4272h-4.8532c-.2374 0-.4274-.1899-.4274-.4272v-16.5059h-.1899l-5.423 12.3658c-.1899.3798-.4273.5697-.8072.5697h-2.9506c-.4748 0-.7597-.1899-.9055-.5697"/><path d="m45.8527 43.6925h19.0772c.2374 0 .4274-.1899.4274-.4272v-4.8047c0-.2373-.19-.4272-.4274-.4272h-12.8911c-.1899 0-.2374-.0949-.2374-.2373v-22.9279c0-.2373-.19-.4272-.4274-.4272h-5.518c-.2374 0-.4273.1899-.4273.4272v28.3937c0 .2373.1899.4272.4273.4272"/><path d="m81.2467 26.0948-1.5703-.2373c-3.3779-.4747-4.5683-1.5699-4.5683-3.2348 0-1.8547 1.3328-3.1872 3.9002-3.1872 2.4249 0 4.5684.7595 6.8034 2.2344.2374.1425.4273.095.6172-.1424l2.6183-3.8993c.2374-.2848.1899-.4747-.095-.6645-2.4724-1.9022-6.0911-3.0449-9.9439-3.0449-6.3286 0-10.3712 3.567-10.3712 8.9413 0 5.3742 3.3304 7.9444 9.2758 8.7988l1.5702.1899c3.4729.4747 4.5209 1.5699 4.5209 3.2822 0 2.0446-1.7127 3.4721-4.7583 3.4721s-5.7079-1.475-7.658-2.9974c-.19-.1899-.4748-.1899-.6648.0475l-3.283 3.7569c-.1899.2373-.1424.5696.0475.712 2.2825 2.187 6.7084 3.9942 11.2768 3.9942 7.5631 0 11.5142-3.8993 11.5142-9.226 0-5.2319-3.188-7.9919-9.2283-8.7989"/><path d="m.799805.88501v60.35769c0 11.464 1.855155 22.7821 5.565475 33.5306 3.56788 10.4157 8.75352 20.1677 15.41442 28.9667.19.285.4274.57.6173.807l-19.69455 19.69 4.75829 4.757 19.21976-19.215c5.4705 6.232 11.6566 11.749 18.5075 16.506 9.0858 6.327 19.0773 11.128 29.6384 14.315l.9531.285.953-.285c10.5611-3.14 20.5526-7.944 29.6385-14.315 8.943-6.232 16.842-13.841 23.452-22.545 6.661-8.799 11.847-18.551 15.415-28.9667 3.663-10.7485 5.565-22.07 5.565-33.5306v-60.35769zm26.307995 118.80999c-6.2336-8.229-11.0835-17.36-14.4139-27.0646-3.42548-10.084-5.18568-20.5951-5.18568-31.3436v-53.64753h131.87578l-112.1812 112.15073zm21.9329 21.07c-6.471-4.52-12.3688-9.799-17.6019-15.743l112.6052-112.5781v48.7988c0 10.7485-1.76 21.3071-5.186 31.3436-3.33 9.7517-8.183 18.8357-14.414 27.0647-6.186 8.134-13.559 15.268-21.933 21.07-8.2308 5.754-17.2217 10.131-26.7349 13.081-9.5132-2.903-18.5075-7.277-26.7354-13.031"/></g></svg>

<svg width="151" height="161" viewBox="0 0 151 161" fill="none" xmlns="http://www.w3.org/2000/svg">
<g clip-path="url(#clip0_322_304)">
<path d="M31.344 107.855L30.0587 105L30.8658 104.193L33.769 107.095L33.2467 107.617L31.0117 105.335L32.392 108.475L32.0122 108.855L28.8716 107.475L31.1541 109.757L30.6318 110.279L27.7287 107.376L28.5359 106.57L31.344 107.855ZM27.5388 108.424L26.6332 109.33L29.0582 111.754L28.4884 112.324L26.0635 109.899L25.1579 110.804L24.6831 110.33L27.0131 108L27.5354 108.428L27.5388 108.424Z" fill="#F8F8FF"/>
<path d="M58.3638 61.1478L60.1715 66.7594L55.4132 63.2873L50.6108 66.7594L52.4659 61.1478L47.6602 57.6757H53.558L55.4132 52.0607L57.2208 57.6757H63.1696L58.3638 61.1478Z" fill="#F8F8FF"/>
<path d="M30.8179 61.1478L35.6237 57.6757H29.6783L27.8707 52.0607L26.063 57.6757H20.1143L24.92 61.1478L23.0649 66.7594L27.8707 63.2873L32.673 66.7594L30.8179 61.1478Z" fill="#F8F8FF"/>
<path d="M43.4752 75.9854L41.6201 70.3738L39.809 75.9854H33.9111L38.6694 79.4575L36.8618 85.12L41.6201 81.6479L46.4224 85.12L44.6148 79.4575L49.3731 75.9854H43.4752Z" fill="#F8F8FF"/>
<path d="M25.585 39.1252L20.162 26.7594H19.9721V43.2653C19.9721 43.5026 19.7822 43.6925 19.5448 43.6925H14.6915C14.4541 43.6925 14.2642 43.5026 14.2642 43.2653V14.8682C14.2642 14.6309 14.4541 14.441 14.6915 14.441H19.8296C20.162 14.441 20.3994 14.5834 20.4944 14.8682L27.915 31.564H28.1049L35.3831 14.8682C35.5256 14.5834 35.7155 14.441 36.0954 14.441H41.1385C41.3759 14.441 41.5659 14.6309 41.5659 14.8682V43.2619C41.5659 43.4992 41.3759 43.6891 41.1385 43.6891H36.2853C36.0479 43.6891 35.8579 43.4992 35.8579 43.2619V26.756H35.668L30.245 39.1218C30.0551 39.5016 29.8177 39.6915 29.4378 39.6915H26.4872C26.0124 39.6915 25.7275 39.5016 25.5817 39.1218" fill="#F8F8FF"/>
<path d="M45.8527 43.6925H64.9299C65.1673 43.6925 65.3573 43.5026 65.3573 43.2653V38.4606C65.3573 38.2233 65.1673 38.0334 64.9299 38.0334H52.0388C51.8489 38.0334 51.8014 37.9385 51.8014 37.7961V14.8682C51.8014 14.6309 51.6114 14.441 51.374 14.441H45.856C45.6186 14.441 45.4287 14.6309 45.4287 14.8682V43.2619C45.4287 43.4992 45.6186 43.6891 45.856 43.6891" fill="#F8F8FF"/>
<path d="M81.2467 26.0948L79.6764 25.8575C76.2985 25.3828 75.1081 24.2876 75.1081 22.6227C75.1081 20.768 76.4409 19.4355 79.0083 19.4355C81.4332 19.4355 83.5767 20.195 85.8117 21.6699C86.0491 21.8124 86.239 21.7649 86.4289 21.5275L89.0472 17.6282C89.2846 17.3434 89.2371 17.1535 88.9522 16.9637C86.4798 15.0615 82.8611 13.9188 79.0083 13.9188C72.6797 13.9188 68.6371 17.4858 68.6371 22.8601C68.6371 28.2343 71.9675 30.8045 77.9129 31.6589L79.4831 31.8488C82.956 32.3235 84.004 33.4187 84.004 35.131C84.004 37.1756 82.2913 38.6031 79.2457 38.6031C76.2001 38.6031 73.5378 37.1281 71.5877 35.6057C71.3977 35.4158 71.1129 35.4158 70.9229 35.6532L67.6399 39.4101C67.45 39.6474 67.4975 39.9797 67.6874 40.1221C69.9699 42.3091 74.3958 44.1163 78.9642 44.1163C86.5273 44.1163 90.4784 40.217 90.4784 34.8903C90.4784 29.6584 87.2904 26.8984 81.2501 26.0914" fill="#F8F8FF"/>
<path d="M0.799805 0.88501V61.2427C0.799805 72.7067 2.65496 84.0248 6.36528 94.7733C9.93316 105.189 15.1188 114.941 21.7797 123.74C21.9697 124.025 22.2071 124.31 22.397 124.547L2.70245 144.237L7.46074 148.994L26.6805 129.779C32.151 136.011 38.3371 141.528 45.188 146.285C54.2738 152.612 64.2653 157.413 74.8264 160.6L75.7795 160.885L76.7325 160.6C87.2936 157.46 97.2851 152.656 106.371 146.285C115.314 140.053 123.213 132.444 129.823 123.74C136.484 114.941 141.67 105.189 145.238 94.7733C148.901 84.0248 150.803 72.7033 150.803 61.2427V0.88501H0.799805ZM27.1078 119.695C20.8742 111.466 16.0243 102.335 12.6939 92.6304C9.26842 82.5464 7.50822 72.0353 7.50822 61.2868V7.63927H139.384L27.2028 119.79L27.1078 119.695ZM49.0407 140.765C42.5697 136.245 36.6719 130.966 31.4388 125.022L144.044 12.4439V61.2427C144.044 71.9912 142.284 82.5498 138.858 92.5863C135.528 102.338 130.675 111.422 124.444 119.651C118.258 127.785 110.885 134.919 102.511 140.721C94.2802 146.475 85.2893 150.852 75.7761 153.802C66.2629 150.899 57.2686 146.525 49.0407 140.771" fill="#F8F8FF"/>
</g>
<defs>
<clipPath id="clip0_322_304">
<rect width="150" height="160" fill="white" transform="translate(0.799805 0.88501)"/>
</clipPath>
</defs>
</svg>
